X: 1030
T: Willie Coleman's Jig
B: jims roots
M:6/8
L:1/8
R: jig
Q: 3/8=100
K:G
V:1 
A | "G"B2G "C"AGE | "D7"GED  "G"GBd | "(C)"edB  "G"dgb |  "Am"age "D7"dBA |
"G"B2G "C"AGE | "D7"GED  "G"GBd | "(C)"edB "D7"dBA | "(G)"BGF  "G"G2 :|
|: d | "G"gfg "C"edB |  "G"dgb "D7"age |   "G"gfg  "C"edB |   "G"GBd "D7"e2f |
"G"gfg "C"edB |  "G"dgb "D7"age |   "G"dBd  "C"gdB |  "D7"AGF  "G"G2 :|
% abcbook-tune_id 6298c297d9f4f9905e3bcae2


% abcbook-boost 0
% abcbook-tablature 
% abcbook-transpose 
% abcbook-lastupdated 1654178456989
% abcbook-soundfonts 
% abcbook-repeats 1


